X:372
T: Push About the Jorum
N: O'Farrell's Pocket Companion v.4 (Sky ed. p.160)
N: "Irish"
M: C
L: 1/8
Q: 180
R: reel
K: G
g| dG {c}BA/G/ FAAc| BGBd g2 {a}gf/e/| dGBA/G/ FAAB|
E>G F/G/A/F/ G2G :| z|ggfg afed| ga g/a/b/g/ a2d2|
g/f/g/a/ bg af g/f/e/d/| ee f/g/a/f/ g2 gf/e/|
dG BA/G/ FAAc| BGBd g2 gf/e/| dGBA/G/ FAAB|
EG F/G/A/F/ G2G :|
